X:274
T:Stormont Lads
B:The Piper's Assistant (1877)
Z:Nigel Gatherer
M:4/4
L:1/8
K:G
g|dGd>B GB d2|eAe>d AB/d/ e2|g>aeg d>GBd|ed/e/ gB A2 G:|
B|Ggg>f gG B2|Aaa>g aA a2|g>aeg d>GBd|e>dg>B A2 GB|
Gg f/g/a/f/ gG B2|Aa f/g/a/g/ aA a2|ga/g/ eg/e/ d>GBd|\
ed/e/ gB A2 G|]
<end>
<start>
